X:14
T:Jig Whack 
B:ISQT.09b
F:file ID isqt/14whack
Z:bill@capeirish.com
Q:160
M:6/8
R:jig
K:G
B|: A2F AGF|dAF AGF|A2F AGF|dAF EFG|
A2F AGF|dAF AGF|def AGF|AGF EFG :|
f2d edB|fdB edB|f2d edB|fdB ABd|
f2d edB|fdB edB|def AGF|1 AGF EFG :|\
[2 "last time"AGF GFE|D6|]

